X:1
T:A minor Daniel Belknap, 1800
T:Isaac Watts, 1719 (Psalm 50)   10 10. 10 10. 10 10.
T:Shrewsbury
T:Transcribed from The Evangelical Harmony, 1800.
%%score [ 1 2 3 4 ]
L:1/8
M:4/4
K:C
V:1 treble nm="Treble" snm="Tr"
V:2 treble nm="Counter" snm="C"
V:3 treble-8 nm="Tenor" snm="T"
V:4 bass nm="Bass" snm="B"
V:1
 A8 | c6 ed | c6 A2 | B2 c2 d2 d2 | e8 | B4 c2 d2 | e6 d2 | c2 c2 G>A B2 | A8 | e4 e2 e2 | e6 ed | %11
w: 1.~The|Lord, the *|Sove- reign,|sends his sum- mons|forth,|Calles the south|na- tions|and a- wakes * the|north:|From east to|west the *|
 c2 cB A2 A2 | ^G8 | c4 c2 c2 | B6 c2 | c2 c2 (B2 A2) | ^G4 A4- | A4 z4 | A4 e2 d2 | c6 d2 | %20
w: soun- ding * or- ders|spread,|Through dis- tant|worlds and|re- gions of *|the dead:||No more shall|a- theists|
 c2 A2 d>c BA | B4 c4 | (e3 d c2) d2 | c2 c2 B2 A2 | ^G6 G2 | A8 |] %26
w: mock his long * de- *|lay; His|ven- * * geance|sleeps no more: be-|hold the|day!|
V:2
 E8 | E6 E2 | E6 C2 | D2 EF G2 A2 | G8 | G4 E2 G2 | G6 GF | E2 E2 E2 E2 | E8 | E4 G2 G2 | G6 G2 | %11
w: 2.~~Be-|hold, the|judge de-|scends, his * guards are|nigh;|Tem- pest and|fire at- *|tend him down the|sky;|Heav'n, earth, and|hell, draw|
 G2 G2 AG F2 | E8 | E4 E2 E2 | D6 C2 | E2 E2 F4 | E4 E4- | E4 z4 | E4 E2 G2 | A6 D2 | E2 E2 A2 A2 | %21
w: near; let all * things|come|To hear his|jus- tice,|and the sin-|ner's doom:||"But gath- er|first my|saints," the Judge com-|
 G4 G4 | E6 D2 | C2 E2 F2 F2 | E4 E4 | E8 |] %26
w: mands, "Bring|them, ye|an- gels, from their|dis- tant|lands."|
V:3
 A8 | e6 c2 | A6 e2 | d2 c2 B2 A2 | B8 | e4 c2 BA | (G3 F E2) B2 | c2 A2 B>A ^G2 | A8 | G4 c2 c2 | %10
w: 3.~Sin-|ners, a-|wake be-|times; ye fools, be|wise;|A- wake be- *|fore * * this|dread- ful mor- * ning|rise;|Change your vain|
 c6 cd | e2 e2 ed c2 | B8 | g4 g2 e2 | g6 f2 | e2 e2 (d2 c2) | B4 A4- | A4 z4 | A4 c2 d2 | e6 g2 | %20
w: thoughts, your *|croo- ked ways * a-|mend;|Fly to the|Sa- vior,|make the Judge *|your friend;||Lest, like a|li- on,|
 e2 e2 f>e dc | d4 e4 | g6 f2 | e2 e2 d2 c2 | B6 B2 | A8 |] %26
w: his last ven- * geance *|tear Your|trem- bling|souls, and no de-|li- verer|near.|
V:4
 A,8 | A,6 A,2 | A,6 C2 | B,2 A,2 G,2 F,2 | E,8 | E,4 A,2 G,2 | C,6 G,2 | A,2 A,2 E,2 E,2 | A,,8 | %9
 C,4 C,2 C,2 | C,6 C,2 | C2 C2 CB, A,2 | E,8 | C,4 C,2 C,2 | G,6 A,2 | %15
"^________________________________________\nEdited by B. C. Johnston, 2015\n   1. Measure 14, Tenor: last note changed from F# to E," A,2 A,2 D,4 | %16
 E,4 A,,4- | A,,4 z4 | A,,4 A,2 B,2 | A,6 G,2 | C,2 C,2 D,2 D,2 | G,4 E,4 | C6 G,2 | %23
 A,2 A,2 ^G,2 A,2 | E,6 E,2 | A,,8 |] %26

